icons/outline/brand-terraform.svg

<svg xmlns="http://www.w3.org/2000/svg" width="24" height="24" viewBox="0 0 24 24" fill="none" stroke="currentColor" stroke-width="2" stroke-linecap="round" stroke-linejoin="round"><path d="M15 15.5l-11.476 -6.216a1 1 0 0 1 -.524 -.88v-4.054a1.35 1.35 0 0 1 2.03 -1.166l9.97 5.816v10.65a1.35 1.35 0 0 1 -2.03 1.166l-3.474 -2.027a1 1 0 0 1 -.496 -.863v-11.926"/><path d="M15 15.5l5.504 -3.21a1 1 0 0 0 .496 -.864v-3.576a1.35 1.35 0 0 0 -2.03 -1.166l-3.97 2.316"/></svg>

<svg xmlns="http://www.w3.org/2000/svg" width="24" height="24" fill="none" stroke="currentColor" stroke-linecap="round" stroke-linejoin="round" stroke-width="2"><path d="M15 15.5 3.524 9.284A1 1 0 0 1 3 8.404V4.35a1.35 1.35 0 0 1 2.03-1.166L15 9v10.65a1.35 1.35 0 0 1-2.03 1.166l-3.474-2.027A1 1 0 0 1 9 17.926V6M15 15.5l5.504-3.21a1 1 0 0 0 .496-.864V7.85a1.35 1.35 0 0 0-2.03-1.166L15 9"/></svg>
